X: 3188
T: MAGGIES APRON
Q: "Reel."
R: Reel.
%R: reel
B: James Kerr "Merry Melodies" v.3 p.22 #188
Z: 2016 John Chambers <jc:trillian.mit.edu>
M: C
L: 1/8
K: Gm
|:\
d2Bc (dB)GB | d2Bc (dB)GB |\
c2AB (cA)FA | cdcB Af=ef ::\
(dg)g^f g2ga |
bag^f gdBG |\
[1 (Af)f=e f2fg | agf=e fcAF :|\
[2 Bdce dgfe | dcBA G/G/G G2 |]

%%sep 1 1 500
%%sep 1 1 500

